X:38
T:Ross's Reel
M:2/2
L:1/8
K:F
a2|"C"g3 f e2 d2|"F"cdcB A2 GF|"C"ECEG c2 cB|"F"AFAc fefa|
"C"g3 f e2 d2|"F"cdcB A2 GF|"C"EFGA Bcde|1"F"f2 a2 f2 a2|2"F"f2 a2 f2 cB
||:
"F"Accc dccc|Acfc acfc|Accc dccc|Acfc acfc|
"C"Accc dccc|c2 ec gcbc|c2 ec gcbc|1a2 g2 "F"f2 cB:|2a2 g2 "F"f2||
